X:1
T:Tom Dooley
M:4/4
L:1/4
K:D
 A, A, B, D| F2 F A| F E D D| F2 z2| A, A,/2A,/2 B, D| E2 E D| F E D B,|\
 D2 z2|

